X:1
T:Salvator (Goss), 87.87 D
T:Salvator (Goss), 87.87 D
T:John Goss, 1874
T:Public Domain Courtesy of the Cyber Hymnal™
C:John Goss, 1874
Z:Public Domain
Z:Courtesy of the Cyber Hymnal™
%%score ( 1 2 ) ( 3 4 )
L:1/8
Q:1/4=108
M:4/4
K:F
V:1 treble 
V:2 treble 
V:3 bass 
V:4 bass 
V:1
 [FA]2 F2 | [Gc]2 [EB]2 [FA]2 [B,B]2 | [CA]2 [CG]2 [CF]2 [^CE]2 | D2 [DB]2 [FA]2 [EG]2 | %4
 F4 [Fc]2 [FA]2 | [FG]2 [EG]2 [_EB]2 [EG]2 | [_EF]2 [DF]2 [DA]2 [DF]2 | [DE]2 [DG]2 [^CF]2 [CE]2 | %8
 D4 D2 [DE]2 | [DF]2 [GB]2 [FA]2 [EG]2 | [DF]2 [^CE]2 [DF]2 [EG]2 | [FA]2 [Fd]2 c2 z x3 | %12
 [CA]4 [Dd]2 [Dc]2 | [DB]2 [DA]2 [DG]2 [DF]2 | F2 z [A,F]2 [CE]2 x | [B,D]2 F2 [EA]2 [EG]2 | F4 |] %17
V:2
 x2 F2 | x8 | x8 | D2 x6 | F4 x4 | x8 | x8 | x8 | D4 D2 x2 | x8 | x8 | x4 E3 =B2 D | x8 | x8 | %14
 C3 E2 B, x2 | x2 F2 x4 | F4 |] %17
V:3
 [F,C]2 [F,A,]2 | [E,G,]2 [C,G,]2 F,2 [D,F,]2 | [C,F,]2 [B,,E,]2 [A,,F,]2 [A,,G,]2 | %3
 [B,,F,]2 [B,,G,]2 [C,A,]2 [C,B,]2 | [F,A,]4 [A,,C]2 [A,,C]2 | [C,C]2 [C,C]2 [G,,B,]2 [G,,B,]2 | %6
 [B,,B,]2 [B,,B,]2 [F,,A,]2 [F,A,]2 | [G,B,]2 [E,B,]2 A,2 [A,,G,]2 | [D,F,]4 [B,,F,]2 [B,,G,]2 | %9
 [A,,A,]2 [G,,D]2 [C,C]2 [^C,B,]2 | [D,A,]2 [G,A,]2 [F,A,]2 [E,A,]2 | %11
 [D,A,]2 [=B,,A,]2 [E,A,]2 [E,^G,]2 x2 | A,4 [^F,A,]2 [^F,,A,]2 | %13
 [G,,G,]2 [A,,^F,]2 [B,,G,]2 [=B,,G,]2 | [C,G,]2 [C,G,]2 [D,F,]2 [A,,F,]2 | %15
 [B,,F,]2 [D,B,]2 [C,C]2 [C,B,]2 | [F,,A,]4 |] %17
V:4
 x4 | x4 F,2 x2 | x8 | x8 | x8 | x8 | x8 | x4 A,2 x2 | x8 | x8 | x8 | x10 | A,4 x4 | x8 | x8 | x8 | %16
 x4 |] %17

